X:134
T:What You Please. (p)1657.PLFD.135
M:6/4
L:1/4
Q:3/4=90
S:Playford, Dancing Master,3rd Ed.,1657
O:England
H:1657.
Z:Chris Partington.
K:G
d2ef>ga|A2d^c>de|dB2A>GF|GAFE2D:|
|:D2EF>GA|EEFG>AB|Be>d^c>BA|afg/f/e2d:|
